!!!!SEGMENT: pl-wn--mus-iii-105-719-1--001-005_zelenski-wladyslaw--25-preludyi-op-38-5-allegretto.krn
!!!cenid: 18xx:3738
!!!COM: Żeleński, Władysław
!!!COM-rismID: pe41024455
!!!CDT: 1837/07/06-1921/01/23
!!!CNT: Polish
!!!GTL: 25 preludyi op. 38
!!!OTL: 5. Allegretto
!!!OMV: 005
!!!PDT: 1881
!!!AGN:
!!!YEC: Copyright 2022 Narodowy Instytut Fryderyka Chopina (https://polishscores.org)
!!!YEM: License CC-BY-4.0 (https://creativecommons.org/licenses/by/4.0)
!!!SMS-siglum: PL-Wn
!!!SMS-shelfmark: Mus.III.105.719/1
!!!SMS-shelfwork: 001-005 G
!!!SMS-variant:
!!!SMS-altvar:
!!!NIFC-rismSourceID:
!!!NIFC-rismChildID:
!!!NIFC-islandoraID: none
!!!URL-pdf-islandora:
!!!URL-scan: https://polona2.pl/item/25-preludyi-2-3-i-4-glosowych-na-organ-lub-fisharmonike-do-uzytku-organistow-i,ODE1NjEwMzc/2 @EN{Scan on Polona} @PL{Skany w portalu Polona}
!!!IIIF: https://polona2.pl/iiif/item/ODE1NjEwMzc/manifest.json
!!!ONB-nifc:
!!!AIN: 2 organ
!!!key: A
**kern	**fing	**dynam	**kern	**fing	**dynam
*part2	*	*	*part1	*	*
*staff2	*	*	*staff1	*	*
*I"Organ	*	*	*I"Organ	*	*
*I'org	*	*	*I'org	*	*
*ICklav	*	*	*ICklav	*	*
*Iorgan	*	*	*Iorgan	*	*
*clefF4	*	*	*clefG2	*	*
*k[f#c#g#]	*	*	*k[f#c#g#]	*	*
*A:	*	*	*A:	*	*
*M2/4	*	*	*M2/4	*	*
*>[A,A1,A2]	*	*	*>[A,A1,A2]	*	*
=1	=1	=1	=1	=1	=1
*xywh-#12:743,428,5091,1047	*	*	*xywh-#12:743,428,5091,1047	*	*
!	!	!	!LO:TX:a:B:t=5. Allegretto.	!	!
8A\L	.	.	8r	.	.
(8a\	1	.	(16cc#\LL	3	p
.	.	.	16dd\JJ	.	.
8g#\	2	.	8ee\L	.	.
8gn\J	1	.	16b\L	.	.
.	.	.	16cc#\JJ	.	.
=2!|:	=2!|:	=2!|:	=2!|:	=2!|:	=2!|:
8f#\L	2	.	8dd\L	.	.
8fn\	1	.	16a\L	.	.
.	.	.	16b\JJ	.	.
8e\	2	<	8cc#\L	.	.
8d#X\J	3	.	16b\L	.	.
.	.	.	16a\JJ	1	.
=3	=3	=3	=3	=3	=3
8e\	1	.	16g#/LL	3	.
.	.	.	16b/	.	.
4dn\	2	.	16f#/	.	.
.	.	.	16g#/JJ	.	.
.	.	.	8e/L)	.	.
8c#\	3	.	[8a/J	5	.
=4	=4	=4	=4	=4	=4
8B\L	.	.	8a/L]	.	.
8d\	.	.	16g#/L	3	.
.	.	.	16f#/JJ	2	.
8c#\	.	.	8e/L	1	.
8B\J	.	[	([>8dd/J	5	.
=5	=5	=5	=5	=5	=5
8A\L)	.	.	8dd\L]	.	pp
(16e\L	1	.	8cc#\	3	.
16f#\JJ	3	.	.	.	.
8g#\L	2	.	8b#X\	2	.
16d#X\L	1	.	8bn\J	1	.
16e#X\JJ	3	.	.	.	.
=6	=6	=6	=6	=6	=6
8f#\L	2	.	8a#X/L	4	.
16c#\L	4	<	8an/J	3	.
16d#X\JJ	3	.	.	.	.
8e\L	1	.	8g#/L	2	.
[8A\J	3	.	8cc#/J	5	.
!!LO:LB:g=original	!	!	!	!	!
=7	=7	=7	=7	=7	=7
*xywh-#12:750,1462,5047,788	*	*	*xywh-#12:750,1462,5047,788	*	*
8A\L]	.	.	8b/L)	4	.
8G#\J	1	[	([8e/J	1	.
8F#\L	5	.	16e/LL]	.	.
.	.	.	16d#X/	3	.
[8A\J	1	>	16c#/	2	.
.	.	.	16d#/JJ	3	.
=8	=8	=8	=8	=8	=8
*>A1	*	*	*>A1	*	*
16A\LL]	.	.	[2e/)	.	.
16G#\	.	.	.	.	.
16F#\	.	]	.	.	.
16G#\JJ	.	.	.	.	.
8E\L)	.	.	.	.	.
(8d\J	.	.	.	.	.
=9	=9	=9	=9	=9	=9
16c#\LL	3	.	8e/L]	.	pp
16A\J	5	.	.	.	.
8a\J	1	.	(16cc#/L	3	.
.	.	.	16dd/JJ	.	.
8g#\L	.	.	8ee\L	.	.
8gn\J)	.	.	16b\L	.	.
.	.	.	16cc#\JJ)	.	.
*>A	*	*	*>A	*	*
=10:|!	=10:|!	=10:|!	=10:|!	=10:|!	=10:|!
*>A2	*	*	*>A2	*	*
!LO:TX:t=P:problem=ligatura do taktu 7	!	!	!	!	!
16A\LL	.	>	(>[4e/	.	.
(16G#\	.	.	.	.	.
16F#\	.	.	.	.	.
16G#\JJ	.	.	.	.	.
8E\L	.	]	16e/LL]	.	.
.	.	.	16f#/	4	.
16F#\L	.	.	16d/	1	.
16G#\JJ	.	.	16e/JJ	3	.
*>A	*	*	*>A	*	*
=11	=11	=11	=11	=11	=11
8A\L)	.	.	8c#/L)	.	p
(8c#\	2	.	(16a/L	5	.
.	.	.	16g#/JJ	3	.
8d\	1	.	8f#/L	2	.
8d#X\J	3	.	16b/L	4	.
.	.	.	16a/JJ	3	.
=12	=12	=12	=12	=12	=12
8e\L	2	.	8g#/L	2	.
8e#X\	1	.	16cc#/L	5	.
.	.	.	16b/JJ	.	.
8f#\	2	<	8a#X/L	.	.
[8en\J	1	.	16g#/L	.	.
.	.	.	16a#/JJ	.	.
!!LO:LB:g=original	!	!	!	!	!
=13	=13	=13	=13	=13	=13
*xywh-#12:750,2220,5047,889	*	*	*xywh-#12:750,2220,5047,889	*	*
8e\L]	.	.	8b/L	5	.
16d\L	.	.	8f#/	2	.
16c#\JJ	.	.	.	.	.
8B\L	.	.	8gn/	3	.
16e\L	1	.	8g#X/J	4	.
16d\JJ	3	.	.	.	.
=14	=14	=14	=14	=14	=14
8c#\L)	4	.	8a/L	1	.
(16f#\L	2	.	8a#X/	3	.
16e\JJ	1	.	.	.	.
8d#X\L	2	.	8b/	4	.
16c#\L	3	[	8an/J	3	.
16d#\JJ	2	.	.	.	.
=15	=15	=15	=15	=15	=15
8B#X\L)	4	.	8g#\L)	2	.
(8G#\	3	.	(16ee\L	4	.
.	.	.	16dd#X\JJ	3	.
8A#X\	.	.	8cc#\L	2	.
8B#\J	1	.	16gg#\L	5	.
.	.	.	16ff#\JJ	4	.
=16	=16	=16	=16	=16	=16
8c#\L	3	<	16ee\LL	3	.
.	.	.	16ddn\	1	.
16e\L	.	.	16cc#\	4	.
16d\JJ	.	.	16b\JJ	3	.
8c#\L	.	.	16a#X/LL	2	.
.	.	.	16b/	3	.
[8e\J	.	.	16cc#/	4	.
.	.	[	16gn/JJ	1	.
=17	=17	=17	=17	=17	=17
8e\L])	.	.	8f#/L)	2	.
(8F#\	4	<	(16dd/L	5	.
.	.	.	16cc#/JJ	3	.
8G#X\	.	.	8b\L	1	.
8A#X\J	.	.	16ff#\L	5	.
.	.	.	16ee\JJ	.	.
=18	=18	=18	=18	=18	=18
8B\L)	1	.	16dd\LL	.	.
.	.	.	16cc#\	.	.
(16d\L	2	.	16b\	1	.
16c#\JJ	3	.	16a\JJ	3	.
16B\LL	4	.	16g#/LL	2	.
16c#\J	3	.	16a/	3	.
8d\J	1	.	16b/	4	.
.	.	[	16g#/JJ	2	.
!!LO:LB:g=original	!	!	!	!	!
=19	=19	=19	=19	=19	=19
*xywh-#12:750,3084,5041,984	*	*	*xywh-#12:750,3084,5041,984	*	*
8c#\L	2	.	8e\L)	1	.
16G#\L	4	.	(8ee\	.	pp
16A\JJ	3	.	.	.	.
8B\L	1	.	8dd#X\	.	.
16F#\L	3	.	8ddn\J	.	.
16G#\JJ	2	.	.	.	.
=20	=20	=20	=20	=20	=20
16A\LL	1	.	8cc#\L	.	.
16Gn\	.	.	.	.	.
16F#\	.	.	8ccn\J	1	.
16E\JJ	.	.	.	.	.
8D#X\L)	.	.	16b/LL	2	.
.	.	.	16a/	1	.
(16B\L	1	.	16g#/	3	.
16A\JJ	3	.	16f#/JJ	2	.
=21	=21	=21	=21	=21	=21
8G#\L	4	.	8e/L	.	.
16c#\L	2	.	8e#X/	.	.
16B\JJ	3	.	.	.	.
8A\L	4	<	8f#/	.	.
16e\L	1	.	8g#/J	.	.
16d\JJ	2	.	.	.	.
=22	=22	=22	=22	=22	=22
16c#\LL	3	.	8a\L)	.	.
16A\J	.	.	.	.	.
8a\J	.	.	(16cc#\L	1	.
.	.	.	16dd\JJ	.	.
8g#\L	2	.	8ee\L	.	.
8gn\J	1	.	16b\L	.	.
.	.	.	16cc#\JJ	.	.
=23	=23	=23	=23	=23	=23
8f#\L	.	.	8dd\L	.	.
8fn\	.	.	16a\L	.	.
.	.	.	16b\JJ	.	.
8e\	.	.	8cc#\L	.	.
8d#X\J	.	.	16b\L	.	.
.	.	[	16a\JJ	.	.
=24	=24	=24	=24	=24	=24
8e\L)	.	.	16g#/LL	2	.
.	.	>	16a/	1	.
!LO:TX:b:i:t=poco rit.	!	!	!	!	!
(16dn\L	.	.	16b/	3	.
16c#\JJ	.	.	16cc#/JJ	4	.
8B\L	.	.	8dd/L	5	.
[8d\J	.	.	16f#/L	2	.
.	.	.	16g#/JJ	3	.
=25	=25	=25	=25	=25	=25
8d\L]	.	.	[4a/)	4	.
16c#\L	.	.	.	.	.
16B\JJ	.	.	.	.	.
8A\)	.	]	8a/]	.	.
8r	.	.	8r	.	.
==	==	==	==	==	==
*-	*-	*-	*-	*-	*-
!!!system-decoration: {(s1,s2)}
!!!RDF**kern: > = above
!!!RDF**kern: < = below
!!!ENC: Anastazja Marusiak
!!!END: 2022-03-10
!!!ENC: Natalia Wrzos
!!!END: 2022-03-15
!!!ENC-iiif: Jan Barakat
!!!END-iiif: 2022-08-31
